X:1
T:Arise, Christian Soldier
T:Arise, Christian Soldier
T:Edith Fox Norton
T:Edith Fox Norton, 1906
T:Public Domain Courtesy of the Cyber Hymnal™
T:Public Domain Courtesy of the Cyber Hymnal™
C:Edith Fox Norton
Z:Public Domain
Z:Courtesy of the Cyber Hymnal™
%%score ( 1 2 ) ( 3 4 )
L:1/8
Q:1/4=95
M:4/4
K:G
V:1 treble 
V:2 treble 
V:3 bass 
V:4 bass 
V:1
 [B,D] | [B,D]2 [B,G]>[CA] [DB]3 [DB] | [DB][B,G][Ec][DB] [DB][DA] z [CD] | %3
w: 1.~Oh,|Chris- tian, a- rise, The|con- flict fierce is rag- ing, And|
w: 2.~Oh,|Chris- tian, a- rise, For|souls a- round are dy- ing; The|
w: 3.~Oh,|Chris- tian, a- rise! And|buck- le on the ar- mor, Go|
w: 4.~Oh,|Chris- tian, a- rise— For|soon the morn- ing break- eth, That|
 [CD]2 [CA]>[C^G] [CA]3 [CA] | [CA]D[DG][DA] [DB]3 [B,D] | [B,D]2 [B,G]>[CA] [DB]3 [DB] | %6
w: trust- ing in God, His|help to- day im- plore; Be-|hold, what a fight The|
w: call comes to you— Oh,|send them light to- day; The|glad Gos- pel news— To|
w: forth to the fray, For|Christ Him- self is near; His|grace will sus- tain, And|
w: glad bless- èd morn, When|all earth’s sha- dows flee; So|fight night and day ’Till|
 [DB][B,G][Ec][DB] [EA][CE][^A,F][A,G] | [B,D]2 [DB]2 [CA]3 [B,G] | [B,G]6 z ||"^Refrain" [B,D] | %10
w: en- e- my is rag- ing, Haste nor|deem the con- flict|o’er.||
w: those in bond- age ly- ing, Speed and|help them while you|may.||
w: naught of ill shall harm you; Je- sus|leads— why should you|fear?||
w: Heav- en’s dawn a- wak- eth, That shall|bring the vic- to-|ry.||
 [GB]2 [GB]>[G^A] [GB]3 [DB] | [DB][^DA][EG][_EA] [=DB][B,D] z [B,D] | %12
w: ||
w: ||
w: ||
w: ||
 [Gd]2 [Gd]>[G^c] [Gd]3 [Ge] | [Gd][DB][^CG][CE] [=CA]3 [CD] | [DB]2 [DB]>[G^A] [GB]3 [DB] | %15
w: |||
w: |||
w: |||
w: |||
 [DB][^DA][EG][_EA] [=DB][B,D][EG][G=e] | [Gd]2 D2 [CA]3 [B,G] | [B,G]6 z |] %18
w: |||
w: |||
w: |||
w: |||
V:2
 x | x8 | x8 | x8 | x D x6 | x8 | x8 | x8 | x7 || x | x8 | x8 | x8 | x8 | x8 | x8 | x2 D2 x4 | %17
 x7 |] %18
V:3
 [G,,G,] | [G,,G,]2 [G,,D,]>[G,,D,] [G,,G,]3 [G,,G,] | %2
w: ||
 [G,,G,][G,,G,][G,,G,][G,,G,] [D,G,][D,F,] z [D,F,] | [D,F,]2 [D,F,]>[D,^E,] [D,F,]3 [D,F,] | %4
w: ||
 [D,F,][C,F,][B,,G,][A,,F,] [G,,G,]3 [G,,G,] | [G,,G,]2 [G,,D,]>[G,,D,] [G,,G,]3 [G,,G,] | %6
w: ||
 [G,,G,][G,,G,][G,,G,][G,,G,] [C,G,][C,G,][^C,G,][C,G,] | [D,G,]2 [D,G,]2 [D,F,]3 [G,,G,] | %8
w: ||
 [G,,G,]6 z || G, | [G,D]2 [G,D]>[G,^C] [G,D]3 [G,,G,] | %11
w: |A-|rise, oh a- rise, And|
 [G,,G,][G,,G,][G,,G,][G,,G,] [G,,G,][G,,G,] z G, | [G,B,]2 [G,B,]>[G,^A,] [G,B,]3 [G,C] | %13
w: hast- en, Chris- tian sol- dier, Go|forth to the fight That|
 [G,B,][G,,G,][A,,G,][A,,G,] [D,F,]3 [D,F,] | [G,,G,]2 [G,D]>[G,^C] [G,D]3 [G,,G,] | %15
w: waits for us to- day; No|time for de- lay! For|
 [G,,G,][G,,G,][G,,G,][G,,G,] [G,,G,][G,,G,][C,G,][C,C] | [D,B,]2 [D,B,]2 [D,F,]3 [G,,G,] | %17
w: Sa- tan’s power grows bold- er; Je- sus|calls! We must o-|
 [G,,D,]6 z |] %18
w: bey.|
V:4
 x | x8 | x8 | x8 | x8 | x8 | x8 | x8 | x7 || G, | x8 | x7 G, | x8 | x8 | x8 | x8 | x8 | x7 |] %18

